X:411
T: Xinsijun dongjin guo wozhuang
N: C2029
O: China,Jiangsu Dongtai
S: III, 465, 2)]
R: Xiaodiao, Shibuqian diao]
M: 2/4
L: 1/16
K: D
e2fed2B2 | e2fed2B2 | A2F2d2A2 | BcB6 |
A3dB2A2 | F3AFEDE | F8 |
E2EFA3B | FAFED4 | D3EF2A2 | E8 |
e2efB2B2 | d2d2dddB | d2dBA2B2 | d8 |
A2F2A2B2 | d4d4 |
A2ddB2A2 | F3AFEDE | F8

@@@ Tune index: 6966
